web/themes/custom/oh_my_pasta/images/icons/messenger.svg

<svg width="48" height="48" viewBox="0 0 48 48" fill="none" xmlns="http://www.w3.org/2000/svg">
<g clip-path="url(#clip0_3251_4351)">
<rect width="48" height="48" rx="8" fill="#004A36"/>
<path d="M23.9775 6.04468C14.0449 6.04468 6 13.5054 6 22.7188C6 27.9773 8.60674 32.6514 12.6966 35.7076L12.7865 41.5503C12.7865 41.8649 13.1461 42.0447 13.4157 41.9099L19.0337 38.7638C20.6067 39.1683 22.2697 39.393 24.0225 39.393C33.9551 39.393 42 31.9323 42 22.7188C42 13.5054 33.8652 6.04468 23.9775 6.04468ZM25.2809 28.157L21.4607 24.157C21.236 23.9323 20.8764 23.8874 20.6067 24.0222L13.8652 27.6627C13.5955 27.7975 13.3708 27.4829 13.5506 27.2582L21.5056 18.8087C21.7303 18.584 22.1348 18.584 22.3596 18.8087L26.1798 22.8986C26.4045 23.1233 26.764 23.2132 27.0337 23.0334L33.6404 19.4379C33.9101 19.3031 34.1348 19.6177 33.9551 19.8424L26.1348 28.157C25.9101 28.3818 25.5056 28.3818 25.2809 28.157Z" fill="white"/>
</g>
<defs>
<clipPath id="clip0_3251_4351">
<rect width="48" height="48" fill="white"/>
</clipPath>
</defs>
</svg>

<svg width="48" height="48" fill="none" xmlns="http://www.w3.org/2000/svg"><g clip-path="url(#clip0_3251_4351)"><rect width="48" height="48" rx="8" fill="#004A36"/><path d="M23.977 6.045C14.045 6.045 6 13.505 6 22.719c0 5.258 2.607 9.932 6.697 12.989l.09 5.842c0 .315.36.495.629.36l5.618-3.146c1.573.404 3.236.629 4.989.629 9.932 0 17.977-7.46 17.977-16.674 0-9.214-8.135-16.674-18.023-16.674zm1.304 22.112l-3.82-4a.756.756 0 00-.854-.135l-6.742 3.64c-.27.136-.494-.18-.314-.404l7.955-8.45a.625.625 0 01.854 0l3.82 4.09c.224.225.584.315.854.135l6.606-3.595c.27-.135.495.18.315.404l-7.82 8.315a.625.625 0 01-.854 0z" fill="#fff"/></g><defs><clipPath id="clip0_3251_4351"><path fill="#fff" d="M0 0h48v48H0z"/></clipPath></defs></svg>
